!!!SOCIAL_FUNCTION:	lightning songs
!!!PDT:	1932
!!!OTL: No_56_My_Power_Is_in_the_Sky.krn
!!!REG: Southwest
!!!LANG: Non-Tone
!!!LING_GROUP: Yuman-Cochimi
**kern	**kern
*staff2	*staff1
=1-	=1-
*clefF4	*clefF4
*k[b-e-a-d-]	*k[b-e-a-d-]
*M2/4	*M2/4
8GG^/L	4r
8GG/J	.
8GG/	8.r
16r	.
16GG/	16F\
=2	=2
8GG^/L	8F\L
8GG/J	[8B-\J
8GG/	8.B-\L]
16r	.
16GG/	16B-\Jk
=3	=3
2r	4A-\
.	8.A-\L
.	16F\Jk
=4	=4
2r	8F\L
.	[8A-\J
.	8.A-\L]
.	16A-\Jk
=5	=5
2r	4F\
.	8.F\L
.	16E-\Jk
=6	=6
2r	8E-\L
.	[8F\J
.	8.F\L]
.	16F\Jk
=7	=7
2r	8F\L
.	8F\J
.	8F\
.	8r
=8	=8
2r	8A-\L
.	[8B-\J
.	8.B-\L]
.	16B-\Jk
=9	=9
2r	4A-\
.	8.A-\L
.	16F\Jk
=10	=10
2r	8F\L
.	[8A-\J
.	8.A-\L]
.	16A-\Jk
=11	=11
2r	8F\L
.	8F\J
.	8F\
.	8r
=12	=12
2r	8E-\L
.	8E-\J
.	8F\
.	8r
=13	=13
2r	8F\L
.	8F\J
.	8F\
.	8r
=14	=14
2r	8F\L
.	[8A-\J
.	8.A-\L]
.	16A-\Jk
=15	=15
2r	8F\L
.	8F\J
.	8F\
.	8r
=16	=16
2r	8F\L
.	8F\J
.	4E-\
=17	=17
2r	8F\L
.	8F\J
.	8F\
.	8r
=18	=18
2r	4r
.	8.A-\L
.	16A-\Jk
=19	=19
2r	8F\L
.	8F\J
.	8F\
.	8r
=20	=20
2r	8E-\L
.	8E-\J
.	4C/
=21	=21
2r	8E-\L
.	8E-\J
.	8C/
.	8r
=22	=22
2r	8E-\L
.	[8F\J
.	8.F\L]
.	16G\Jk
=23	=23
2r	8F\L
.	8F\J
.	8F\
.	8r
=24	=24
2r	4r
.	8.F\L
.	16G\Jk
=25	=25
2r	8F\L
.	8F\J
.	8F\
.	8r
=26	=26
2r	8E-\L
.	8E-\J
.	4C/
=27	=27
2r	8E-\L
.	8E-\J
.	8C/
.	8r
=28	=28
2r	8E-\L
.	[8F\J
.	8.F\L]
.	16G\Jk
=29	=29
2r	8F\L
.	8F\J
.	8F\
.	8r
=30	=30
2r	4A-\
.	12B-\L
.	12B-\
.	12B-\J
=31	=31
2r	8A-\L
.	8A-\J
.	8.A-\L
.	16F\Jk
=32	=32
2r	8F\L
.	[8A-\J
.	8.A-\L]
.	16A-\Jk
=33	=33
2r	8F\L
.	8F\J
.	12F\L
.	12E-\
.	12E-\J
=34	=34
2r	4F\
.	8F\L
.	8E-\J
=35	=35
2r	8F\L
.	8F\J
.	8F\
.	8r
=36!|:	=36!|:
2r	8A-\L
.	[8B-\J
.	8.B-\L]
.	16B-\Jk
=37	=37
2r	8A-\L
.	8A-\J
.	8A-\L
.	8F\J
=38	=38
2r	8F\L
.	[8A-\J
.	8.A-\L]
.	16A-\Jk
=39	=39
2r	8F\L
.	8F\J
.	8F\
.	8r
=40	=40
2r	8F\L
.	8F\J
.	8E-\
.	8r
=41	=41
2r	8F\L
.	8F\J
.	8F\
.	8r
=42	=42
2r	4r
.	8.A-\L
.	16A-\Jk
=43	=43
2r	8F\L
.	8F\J
.	8F\
.	8r
=44	=44
2r	4r
.	8.A-\L
.	16A-\Jk
=45	=45
2r	8F\L
.	8F\J
.	8F\
.	8r
=46	=46
2r	8F\L
.	8F\J
.	8E-\
.	8r
=47	=47
2r	8F\L
.	8F\J
.	8F\
.	8r
==:|!	==:|!
*-	*-
